X:5072
T:The Tornado
M:2/4
R:Polka
L:1/8
Q:320
C:Aidan Crossey
K:G
|:D2 BB/A/|GB A2|d2 cf/d/|cA FA|
D2 BB/A/|GB A2|de/f/ ed|cF G2:||
|:B2 dd/c/|FA FA|B2 dd/c/|FA GA|
B2 dd/c/|FA FA|de/f/ ed|cF G2:||
